src/assets/icons/how-to-keep-others-safe/separate-bathroom.svg

<?xml version="1.0" encoding="UTF-8"?>
<svg width="48px" height="48px" viewBox="0 0 48 48" version="1.1" xmlns="http://www.w3.org/2000/svg" xmlns:xlink="http://www.w3.org/1999/xlink">
    <title>health-advice/separate-bathroom</title>
    <defs>
        <polygon id="path-1" points="0.0002 0 48 0 48 47.9998 0.0002 47.9998"></polygon>
        <polygon id="path-3" points="0 0.8688 19.1061925 0.8688 19.1061925 16.4391716 0 16.4391716"></polygon>
    </defs>
    <g id="NY-App" stroke="none" stroke-width="1" fill="none" fill-rule="evenodd">
        <g id="keep-safe" transform="translate(-20.000000, -748.000000)">
            <g id="health-advice/separate-bathroom" transform="translate(20.000000, 748.000000)">
                <g id="Group-3" transform="translate(0.000000, 0.000300)">
                    <mask id="mask-2" fill="white">
                        <use xlink:href="#path-1"></use>
                    </mask>
                    <g id="Clip-2"></g>
                    <path d="M43.0322,47.9998 L4.9682,47.9998 C2.2242,47.9998 0.0002,45.7758 0.0002,43.0318 L0.0002,4.9678 C0.0002,2.2238 2.2242,-0.0002 4.9682,-0.0002 L43.0322,-0.0002 C45.7762,-0.0002 48.0002,2.2238 48.0002,4.9678 L48.0002,43.0318 C48.0002,45.7758 45.7762,47.9998 43.0322,47.9998" id="Fill-1" fill="#483066" mask="url(#mask-2)"></path>
                </g>
                <path d="M15.8998,31.4269 C15.6598,31.4269 15.4248,31.3999 15.1928,31.3599 L12.7488,42.0619 C12.7208,42.1739 12.5258,42.7279 11.3828,42.7279 C11.2058,42.7279 11.0138,42.7139 10.8108,42.6869 L4.5888,39.7039 C3.3608,38.5389 3.8048,37.8759 3.8568,37.8079 L10.9638,29.3709 L9.5648,28.6349 L2.6858,36.7989 C2.1348,37.4239 1.6228,39.0899 3.6268,40.9209 C3.6828,40.9719 3.7458,41.0149 3.8148,41.0479 L10.2488,44.1319 C10.3168,44.1639 10.3898,44.1869 10.4638,44.1979 C10.7868,44.2479 11.0958,44.2729 11.3828,44.2729 C13.4008,44.2729 14.1518,43.0149 14.2588,42.3899 L16.7868,31.3199 C16.4938,31.3829 16.1988,31.4269 15.8998,31.4269 Z" id="Fill-4" fill="#FFFFFE"></path>
                <path d="M20.08,23.6969 C20.249,23.5209 20.449,23.3479 20.669,23.1809 C20.703,24.0629 20.863,25.0719 21.051,25.9859 C20.668,25.2289 20.324,24.3879 20.08,23.6969 M23.949,20.7989 L23.451,20.5599 L23.653,20.1389 C23.741,19.9539 23.753,19.7409 23.684,19.5479 C23.616,19.3549 23.475,19.1969 23.289,19.1079 L17.274,16.2249 C17.118,16.1489 16.938,16.1289 16.767,16.1689 L11.348,17.4099 C11.118,17.4629 10.925,17.6169 10.824,17.8299 C10.722,18.0429 10.723,18.2909 10.827,18.5019 L11.063,18.9859 C11.14,19.1449 11.27,19.2729 11.43,19.3469 C13.039,20.0999 14.102,20.5889 14.729,20.8749 C14.729,20.8749 16.246,20.7859 16.419,20.7859 C16.438,20.7859 16.455,20.7899 16.475,20.7909 C16.549,20.6119 16.56,20.4119 16.493,20.2289 C16.42,20.0329 16.272,19.8749 16.081,19.7899 C16.072,19.7859 15.286,19.4359 13.35,18.5369 L16.85,17.7359 L21.925,20.1679 L21.62,20.8029 C21.046,21.0789 19.761,21.7669 18.903,22.6959 C18.917,22.7469 18.938,22.7959 18.949,22.8489 L18.991,23.1349 C18.992,23.1509 18.989,23.1669 18.99,23.1819 C19.008,23.4289 18.98,23.6749 18.928,23.9159 C18.906,24.0179 18.891,24.1219 18.856,24.2209 C18.964,24.3269 19.064,24.4399 19.159,24.5559 C19.179,24.5809 19.198,24.6069 19.218,24.6319 C19.665,25.2039 19.957,25.8809 20.064,26.6059 C20.601,27.6409 21.276,28.6339 22.017,28.9889 C22.098,29.0269 22.183,29.0459 22.268,29.0459 C22.403,29.0459 22.538,28.9979 22.644,28.9069 C22.818,28.7579 22.889,28.5199 22.824,28.3009 C22.474,27.1219 21.688,23.9979 21.835,22.4309 C22.078,22.2989 22.31,22.1819 22.508,22.0949 C22.596,22.0559 22.673,22.0009 22.741,21.9339 L23.281,22.1929 C23.723,22.4049 24.204,22.3219 24.416,21.8799 C24.628,21.4369 24.391,21.0109 23.949,20.7989" id="Fill-6" fill="#FFFFFE"></path>
                <g id="Group-10" transform="translate(0.000000, 14.000300)">
                    <mask id="mask-4" fill="white">
                        <use xlink:href="#path-3"></use>
                    </mask>
                    <g id="Clip-9"></g>
                    <path d="M19.0908,12.9378 C18.9918,11.9128 18.4198,11.0148 17.5428,10.4948 C17.5478,10.4908 17.5498,10.4848 17.5548,10.4798 C17.6418,10.3888 17.7148,10.2868 17.7778,10.1788 C17.9398,9.8998 18.0178,9.5768 17.9878,9.2488 L17.9858,9.2318 L17.9628,9.0768 C17.9088,8.8138 17.7868,8.5848 17.6258,8.3918 C17.3328,8.0418 16.9008,7.8228 16.4318,7.8198 C16.3238,7.8188 16.2148,7.8288 16.1048,7.8508 L14.3008,8.2208 L13.6708,8.3508 L9.7658,6.1608 L-0.0002,0.8688 L-0.0002,9.1828 L10.1018,13.9958 L11.5398,14.6878 L14.4698,16.0968 C14.7698,16.2488 15.0868,16.3488 15.4118,16.3998 C15.9028,16.4778 16.4118,16.4408 16.9018,16.2808 C16.9488,16.2658 16.9908,16.2388 17.0378,16.2218 C17.7838,15.9388 18.3958,15.4068 18.7588,14.6898 C19.0328,14.1518 19.1478,13.5498 19.0928,12.9508 C19.0918,12.9468 19.0908,12.9418 19.0908,12.9378" id="Fill-8" fill="#FFFFFE" mask="url(#mask-4)"></path>
                </g>
                <path d="M42.1464,46.8834 L29.4584,46.8834 L29.4584,1.1164 L42.1464,1.1164 C44.7624,1.1164 46.8834,3.2374 46.8834,5.8534 L46.8834,42.1464 C46.8834,44.7624 44.7624,46.8834 42.1464,46.8834" id="Fill-11" fill="#FFFFFE"></path>
                <path d="M35.6171,40.4508 L35.1881,38.9498 L35.4021,38.7728 C35.5211,38.6748 35.5891,38.5308 35.5891,38.3778 C35.5891,38.0918 35.3561,37.8588 35.0701,37.8588 C34.7841,37.8588 34.5521,38.0918 34.5521,38.3778 C34.5521,38.5308 34.6201,38.6748 34.7391,38.7718 L34.9531,38.9488 L34.5241,40.4508 L35.6171,40.4508 Z M34.4491,42.7698 C33.4761,42.7698 32.6841,41.9778 32.6841,41.0048 L32.6841,28.7858 C32.6841,27.8128 33.4761,27.0208 34.4491,27.0208 L35.6921,27.0208 C36.6651,27.0208 37.4571,27.8128 37.4571,28.7858 L37.4571,29.2098 L37.0331,29.2148 L35.5351,29.2148 C34.8141,29.2148 34.2281,29.8008 34.2281,30.5218 C34.2281,31.2428 34.8141,31.8288 35.5351,31.8288 L37.4571,31.8288 L37.4571,41.0048 C37.4571,41.9778 36.6651,42.7698 35.6921,42.7698 L34.4491,42.7698 Z" id="Fill-13" fill="#FFFFFE"></path>
                <path d="M35.0707,38.4967 L35.0077,38.4447 C34.9927,38.4327 34.9757,38.4117 34.9757,38.3777 C34.9757,38.3257 35.0187,38.2827 35.0707,38.2827 C35.1217,38.2827 35.1647,38.3257 35.1647,38.3777 C35.1647,38.4117 35.1477,38.4337 35.1327,38.4457 L35.0707,38.4967 Z M35.6917,26.5967 L34.4487,26.5967 C33.2427,26.5967 32.2607,27.5787 32.2607,28.7857 L32.2607,41.0047 C32.2607,42.2117 33.2427,43.1937 34.4487,43.1937 L35.6917,43.1937 C36.8987,43.1937 37.8807,42.2117 37.8807,41.0047 L37.8807,32.2527 L37.8807,31.4057 L37.0327,31.4057 L35.5347,31.4057 C35.0487,31.4057 34.6517,31.0087 34.6517,30.5217 C34.6517,30.0347 35.0487,29.6387 35.5347,29.6387 L37.0327,29.6387 L37.8807,29.6387 L37.8807,28.7907 C37.8807,27.5787 36.8987,26.5967 35.6917,26.5967 L35.6917,26.5967 Z M34.2827,40.8747 L35.8577,40.8747 C35.9337,40.8747 36.0057,40.8387 36.0507,40.7787 C36.0967,40.7177 36.1117,40.6397 36.0907,40.5657 L35.6717,39.0997 C35.8857,38.9227 36.0127,38.6607 36.0127,38.3777 C36.0127,37.8577 35.5897,37.4347 35.0707,37.4347 C34.5507,37.4347 34.1287,37.8577 34.1287,38.3777 C34.1287,38.6607 34.2547,38.9227 34.4687,39.0997 L34.0497,40.5657 C34.0287,40.6397 34.0437,40.7177 34.0897,40.7787 C34.1347,40.8387 34.2067,40.8747 34.2827,40.8747 L34.2827,40.8747 Z M35.6917,27.4447 C36.4317,27.4447 37.0327,28.0457 37.0327,28.7857 L37.0327,28.7907 L35.5347,28.7907 C34.5807,28.7907 33.8037,29.5677 33.8037,30.5217 C33.8037,31.4757 34.5807,32.2527 35.5347,32.2527 L37.0327,32.2527 L37.0327,41.0047 C37.0327,41.7447 36.4317,42.3467 35.6917,42.3467 L34.4487,42.3467 C33.7097,42.3467 33.1077,41.7447 33.1077,41.0047 L33.1077,28.7857 C33.1077,28.0457 33.7097,27.4447 34.4487,27.4447 L35.6917,27.4447 L35.6917,27.4447 Z" id="Fill-15" fill="#483066"></path>
                <path d="M35.5356,31.7193 C34.8746,31.7193 34.3376,31.1823 34.3376,30.5213 C34.3376,29.8613 34.8746,29.3243 35.5356,29.3243 L43.2086,29.3243 C43.8696,29.3243 44.4066,29.8613 44.4066,30.5213 C44.4066,31.1823 43.8696,31.7193 43.2086,31.7193 L35.5356,31.7193 Z" id="Fill-17" fill="#FFFFFE"></path>
                <path d="M43.2089,28.9005 L38.0019,28.9005 L37.0329,28.9005 L35.5349,28.9005 C34.6419,28.9005 33.9139,29.6285 33.9139,30.5215 C33.9139,31.4155 34.6419,32.1435 35.5349,32.1435 L37.0329,32.1435 L38.0019,32.1435 L43.2089,32.1435 C44.1029,32.1435 44.8309,31.4155 44.8309,30.5215 C44.8309,29.6285 44.1029,28.9005 43.2089,28.9005 M43.2089,29.7485 C43.6359,29.7485 43.9829,30.0955 43.9829,30.5215 C43.9829,30.9485 43.6359,31.2955 43.2089,31.2955 L38.0019,31.2955 L37.0329,31.2955 L35.5349,31.2955 C35.1089,31.2955 34.7619,30.9485 34.7619,30.5215 C34.7619,30.0955 35.1089,29.7485 35.5349,29.7485 L37.0329,29.7485 L38.0019,29.7485 L43.2089,29.7485" id="Fill-19" fill="#483066"></path>
            </g>
        </g>
    </g>
</svg>

<svg width="48" height="48" xmlns="http://www.w3.org/2000/svg" xmlns:xlink="http://www.w3.org/1999/xlink"><defs><path id="a" d="M0 0h48v48H0z"/><path id="c" d="M0 .869h19.106v15.57H0z"/></defs><g fill="none" fill-rule="evenodd"><g><mask id="b" fill="#fff"><use xlink:href="#a"/></mask><path d="M43.032 48H4.968A4.968 4.968 0 010 43.032V4.968A4.968 4.968 0 014.968 0h38.064A4.968 4.968 0 0148 4.968v38.064A4.968 4.968 0 0143.032 48" fill="#483066" mask="url(#b)"/></g><path d="M15.9 31.427a4.15 4.15 0 01-.707-.067l-2.444 10.702c-.028.112-.223.666-1.366.666-.177 0-.37-.014-.572-.041l-6.222-2.983c-1.228-1.165-.784-1.828-.732-1.896l7.107-8.437-1.4-.736-6.878 8.164c-.551.625-1.063 2.29.94 4.122a.777.777 0 00.189.127l6.434 3.084a.776.776 0 00.215.066c.323.05.632.075.919.075 2.018 0 2.769-1.258 2.876-1.883l2.528-11.07a4.218 4.218 0 01-.887.107zM20.08 23.697c.169-.176.369-.35.589-.516.034.882.194 1.89.382 2.805a20.161 20.161 0 01-.971-2.29m3.869-2.897l-.498-.24.202-.42a.772.772 0 00-.364-1.031l-6.015-2.883a.764.764 0 00-.507-.056l-5.419 1.24a.77.77 0 00-.521 1.093l.236.484a.766.766 0 00.367.36c1.609.754 2.672 1.243 3.299 1.529 0 0 1.517-.09 1.69-.09.019 0 .036.005.056.006a.774.774 0 00.018-.562.776.776 0 00-.412-.44c-.009-.003-.795-.353-2.731-1.252l3.5-.801 5.075 2.432-.305.635c-.574.276-1.859.964-2.717 1.893.014.05.035.1.046.153l.042.286c.001.016-.002.032-.001.047.018.247-.01.493-.062.734-.022.102-.037.206-.072.305.108.106.208.219.303.335l.059.076c.447.572.739 1.249.846 1.974.537 1.035 1.212 2.028 1.953 2.383a.58.58 0 00.807-.688c-.35-1.18-1.136-4.303-.989-5.87.243-.132.475-.25.673-.336a.784.784 0 00.233-.161l.54.259c.442.212.923.129 1.135-.313.212-.443-.025-.87-.467-1.081" fill="#FFFFFE"/><g transform="translate(0 14)"><mask id="d" fill="#fff"><use xlink:href="#c"/></mask><path d="M19.09 12.938a3.18 3.18 0 00-1.547-2.443c.005-.004.007-.01.012-.015.087-.091.16-.193.223-.301.162-.28.24-.602.21-.93l-.002-.017-.023-.155a1.554 1.554 0 00-.337-.685 1.575 1.575 0 00-1.521-.541l-1.804.37-.63.13-3.905-2.19L0 .869v8.314l10.102 4.813 1.438.692 2.93 1.409a3.182 3.182 0 002.432.184c.047-.015.089-.042.136-.06a3.166 3.166 0 001.72-1.531 3.187 3.187 0 00.333-1.752" fill="#FFFFFE" mask="url(#d)"/></g><path d="M42.146 46.883H29.458V1.116h12.688a4.737 4.737 0 014.737 4.737v36.293a4.737 4.737 0 01-4.737 4.737" fill="#FFFFFE"/><path d="M35.617 40.45l-.429-1.5.214-.177a.51.51 0 00.187-.395.519.519 0 10-1.037 0c0 .153.068.297.187.394l.214.177-.429 1.502h1.093zm-1.168 2.32a1.767 1.767 0 01-1.765-1.765v-12.22c0-.972.792-1.764 1.765-1.764h1.243c.973 0 1.765.792 1.765 1.765v.424l-.424.005h-1.498a1.308 1.308 0 000 2.614h1.922v9.176c0 .973-.792 1.765-1.765 1.765H34.45z" fill="#FFFFFE"/><path d="M35.07 38.497l-.062-.052a.083.083 0 01-.032-.067c0-.052.043-.095.095-.095.05 0 .094.043.094.095a.085.085 0 01-.032.068l-.062.05zm.622-11.9h-1.243a2.191 2.191 0 00-2.188 2.189v12.219c0 1.207.982 2.189 2.188 2.189h1.243a2.192 2.192 0 002.189-2.19V31.407h-2.346a.884.884 0 010-1.767h2.346v-.848a2.193 2.193 0 00-2.19-2.194zm-1.41 14.278h1.576a.242.242 0 00.233-.31l-.42-1.465a.935.935 0 00.342-.722.943.943 0 00-1.884 0c0 .283.126.545.34.722l-.42 1.466a.242.242 0 00.234.309zm1.41-13.43c.74 0 1.34.6 1.34 1.34v.006h-1.497c-.954 0-1.731.777-1.731 1.73 0 .955.777 1.732 1.73 1.732h1.499v8.752c0 .74-.601 1.342-1.341 1.342h-1.243a1.343 1.343 0 01-1.341-1.342v-12.22c0-.74.602-1.34 1.34-1.34h1.244z" fill="#483066"/><path d="M35.536 31.72a1.199 1.199 0 010-2.395h7.673a1.199 1.199 0 010 2.394h-7.673z" fill="#FFFFFE"/><path d="M43.209 28.9H35.535c-.893 0-1.621.729-1.621 1.622 0 .894.728 1.622 1.62 1.622h7.675c.894 0 1.622-.728 1.622-1.622 0-.893-.728-1.621-1.622-1.621m0 .848a.774.774 0 010 1.547H35.535a.774.774 0 010-1.547H43.209" fill="#483066"/></g></svg>
